X: 118
T: Cantantibus organis – Andantino
C: Franciszek Walczyński
%%abc-version 2.0
%%abcx-abcm2ps-target-version 5.9.1 (29 Sep 2008)
%%abc-creator hum2abc beta
%%abcx-conversion-date 2021/10/04 07:38:41
%%abc-edited-by Kamil Watkowski
%%abcx-initial-encoding-date 2021-08-09
%%humdrum-veritas 3320230434
%%humdrum-veritas-data 489477371
%%linebreak <none>
%%barnumbers 0
L: 1/16
M: 2/4
N: Derived from pl-kozmzk--mzk-m-346--020_walczynski-franciszek--cantantibus-organis-andantino.krn
%%staves {1 2}
V: 1 clef=treble
V: 2 clef=bass
K: D
[V:1] B4AGFE & z8 | 
[V:2] B,4A,G,F,E, & z8 | 
[V:1] F4B,4 & z8 | 
[V:2] F,4B,,4 & z8 | 
[V:1] E4D4- & B,8- | 
[V:2] G,4=F,4 & G,,4^G,,4 | 
[V:1] D4C4 & B,4A,4 | 
[V:2] E,8 & A,,8 | 
[V:1] e4dcBA & z8 | 
[V:2] E4DCB,A, & z8 | 
[V:1] B4E4 & z8 | 
[V:2] B,4E,4 & z8 | 
[V:1] d4c2B2 & E6F2 | 
[V:2] B,4A,2D2 & ^G,4A,2D,2 | 
[V:1] B4^A4 & E8 | 
[V:2] C8 & F,8 | 
[V:1] f4edcB & z8 | 
[V:2] F4EDCB, & z8 | 
[V:1] c4F4 & z8 | 
[V:2] C4F,4 & z8 | 
[V:1] B4AGFE & F4-FE^DE | 
[V:2] D4CB,A,G, & B,,8- | 
[V:1] B4F4 & ^D8 | 
[V:2] F,4B,4 & B,,8 | 
[V:1] A4GFGE & F4E^DEC | 
[V:2] =C4B,A,B,G, & B,,8- | 
[V:1] F8 & ^D8- | 
[V:2] F,2B,2F,2G,2 & B,,8- | 
[V:1] F4E^DEC & D4B,4- | 
[V:2] A,4G,F,G,E, & B,,8- | 
[V:1] !fermata!^D8 & B,8 |]  
[V:2] F,8 & !fermata!B,,8 |]  


